;Generated by Cura LulzBot Edition GCodeWriter Version: 2.6.66
;FLAVOR:RepRap
;TIME:2407
;Filament used: 1.18408m
;Layer height: 0.1
;Generated with Cura_SteamEngine 2.6.66
G21 ;metric values
G90 ;absolute positioning
M82 ;set extruder to absolute mode
M107 ;start with the fan off
G28 X0 Y0 ;move X/Y to min endstops
G28 Z0 ;move Z to min endstops
G1 Z15.0 F9000 ;move the platform down 15mm
G92 E0 ;zero the extruded length
G1 F200 E3 ;extrude 3mm of feed stock
G92 E0 ;zero the extruded length again
G1 F9000
;Put printing message on LCD screen
M117 Printing...
M221 S100
;LAYER_COUNT:176
;LAYER:0
M107
G0 F3600 X75.204 Y91.1 Z0.299
;TYPE:SKIRT
G1 F1800 X75.594 Y90.814 E0.02413
G1 X76.419 Y90.291 E0.07286
G1 X76.834 Y90.065 E0.09644
G1 X77.771 Y89.631 E0.14796
G1 X78.365 Y89.417 E0.17945
G1 X79.925 Y89.005 E0.25995
G1 X80.525 Y88.9 E0.29034
G1 X81.503 Y88.813 E0.33933
G1 X82.008 Y88.804 E0.36452
G1 X88.48 Y89.14 E0.68785
G1 X93.945 Y89.124 E0.9605
G1 X100.208 Y88.811 E1.27335
G1 X100.636 Y88.816 E1.29471
G1 X103.725 Y89.03 E1.44919
G1 X109.222 Y89.171 E1.72352
G1 X114.693 Y89 E1.99661
G1 X117.582 Y88.807 E2.14106
G1 X117.983 Y88.803 E2.16107
G1 X119.03 Y88.85 E2.21335
G1 X119.542 Y88.909 E2.23907
G1 X120.625 Y89.115 E2.29407
G1 X121.104 Y89.241 E2.31878
G1 X122.069 Y89.567 E2.36959
G1 X122.523 Y89.756 E2.39413
G1 X123.434 Y90.21 E2.44491
G1 X123.827 Y90.438 E2.46758
G1 X124.634 Y90.977 E2.51599
G1 X125.031 Y91.284 E2.54103
G1 X125.852 Y92.016 E2.59591
G1 X126.211 Y92.385 E2.62159
G1 X126.9 Y93.204 E2.67499
G1 X127.186 Y93.594 E2.69912
G1 X127.709 Y94.419 E2.74785
G1 X127.935 Y94.834 E2.77143
G1 X128.369 Y95.771 E2.82294
G1 X128.582 Y96.364 E2.85438
G1 X128.994 Y97.922 E2.93478
G1 X129.1 Y98.523 E2.96523
G1 X129.187 Y99.502 E3.01426
G1 X129.197 Y99.982 E3.03821
G1 X129.15 Y101.03 E3.09055
G1 X129.091 Y101.542 E3.11626
G1 X128.885 Y102.625 E3.17126
G1 X128.759 Y103.104 E3.19597
G1 X128.433 Y104.069 E3.24679
G1 X128.244 Y104.523 E3.27133
G1 X127.79 Y105.434 E3.32211
G1 X127.562 Y105.827 E3.34477
G1 X127.023 Y106.634 E3.39319
G1 X126.716 Y107.031 E3.41823
G1 X125.984 Y107.852 E3.4731
G1 X125.615 Y108.211 E3.49879
G1 X124.796 Y108.9 E3.55219
G1 X124.389 Y109.196 E3.57729
G1 X118.418 Y112.936 E3.9288
G1 X113.981 Y116.091 E4.20042
G1 X109.721 Y119.496 E4.4725
G1 X105.653 Y123.144 E4.74511
G1 X100.483 Y128.327 E5.11034
G1 X100.083 Y128.673 E5.13672
G1 X99.255 Y129.289 E5.18821
G1 X98.817 Y129.568 E5.21412
G1 X97.838 Y130.097 E5.26963
G1 X97.292 Y130.336 E5.29937
G1 X95.921 Y130.805 E5.37166
G1 X95.213 Y130.97 E5.40793
G1 X93.635 Y131.172 E5.4873
G1 X93.017 Y131.197 E5.51816
G1 X91.97 Y131.15 E5.57044
G1 X91.458 Y131.091 E5.59616
G1 X90.375 Y130.885 E5.65116
G1 X89.896 Y130.759 E5.67587
G1 X88.931 Y130.433 E5.72668
G1 X88.477 Y130.244 E5.75122
G1 X87.564 Y129.789 E5.80211
G1 X87.169 Y129.56 E5.82489
G1 X86.363 Y129.021 E5.87326
G1 X85.968 Y128.715 E5.89819
G1 X85.147 Y127.983 E5.95307
G1 X84.788 Y127.613 E5.97879
G1 X84.1 Y126.795 E6.03211
G1 X83.734 Y126.271 E6.064
G1 X82.921 Y124.856 E6.14542
G1 X82.76 Y124.543 E6.16298
G1 X80.476 Y119.478 E6.44018
G1 X77.96 Y114.647 E6.71193
G1 X75.158 Y109.939 E6.98526
G1 X72.6 Y106.095 E7.21562
G1 X72.431 Y105.814 E7.23198
G1 X71.904 Y104.84 E7.28723
G1 X71.664 Y104.292 E7.31708
G1 X71.195 Y102.921 E7.38937
G1 X71.03 Y102.213 E7.42564
G1 X70.828 Y100.636 E7.50496
G1 X70.803 Y100.018 E7.53581
G1 X70.85 Y98.97 E7.58815
G1 X70.909 Y98.458 E7.61386
G1 X71.115 Y97.375 E7.66886
G1 X71.241 Y96.896 E7.69357
G1 X71.567 Y95.931 E7.74439
G1 X71.756 Y95.477 E7.76892
G1 X72.21 Y94.566 E7.81971
G1 X72.438 Y94.173 E7.84237
G1 X72.977 Y93.366 E7.89079
G1 X73.284 Y92.969 E7.91583
G1 X74.016 Y92.148 E7.9707
G1 X74.385 Y91.789 E7.99639
G1 X75.204 Y91.1 E8.04978
G0 F3600 X75.462 Y91.406
G1 F1800 X75.809 Y91.152 E8.07124
G1 X76.634 Y90.629 E8.11997
G1 X77.002 Y90.428 E8.14089
G1 X77.939 Y89.994 E8.19241
G1 X78.467 Y89.804 E8.2204
G1 X80.027 Y89.392 E8.3009
G1 X80.56 Y89.299 E8.32789
G1 X81.538 Y89.212 E8.37688
G1 X81.988 Y89.203 E8.39934
G1 X88.48 Y89.54 E8.72366
G1 X93.966 Y89.524 E8.99736
G1 X100.228 Y89.211 E9.31016
G1 X100.609 Y89.215 E9.32917
G1 X103.711 Y89.43 E9.4843
G1 X109.224 Y89.571 E9.75943
G1 X114.704 Y89.4 E10.03297
G1 X117.608 Y89.206 E10.17817
G1 X117.966 Y89.202 E10.19603
G1 X119.013 Y89.249 E10.24832
G1 X119.467 Y89.302 E10.27112
G1 X120.55 Y89.508 E10.32612
G1 X120.976 Y89.62 E10.3481
G1 X121.941 Y89.946 E10.39892
G1 X122.344 Y90.114 E10.4207
G1 X123.255 Y90.568 E10.47148
G1 X123.605 Y90.771 E10.49167
G1 X124.412 Y91.31 E10.54008
G1 X124.765 Y91.583 E10.56235
G1 X125.586 Y92.315 E10.61722
G1 X125.905 Y92.643 E10.64005
G1 X126.594 Y93.462 E10.69344
G1 X126.848 Y93.809 E10.7149
G1 X127.371 Y94.634 E10.76363
G1 X127.572 Y95.002 E10.78455
G1 X128.006 Y95.939 E10.83607
G1 X128.196 Y96.466 E10.86402
G1 X128.608 Y98.024 E10.94442
G1 X128.701 Y98.559 E10.97151
G1 X128.788 Y99.538 E11.02055
G1 X128.798 Y99.964 E11.0418
G1 X128.751 Y101.012 E11.09414
G1 X128.698 Y101.467 E11.117
G1 X128.492 Y102.55 E11.172
G1 X128.38 Y102.976 E11.19397
G1 X128.054 Y103.941 E11.24479
G1 X127.886 Y104.344 E11.26657
G1 X127.432 Y105.255 E11.31735
G1 X127.229 Y105.605 E11.33754
G1 X126.69 Y106.412 E11.38595
G1 X126.417 Y106.765 E11.40822
G1 X125.685 Y107.586 E11.46309
G1 X125.357 Y107.905 E11.48592
G1 X124.538 Y108.594 E11.53932
G1 X124.177 Y108.857 E11.5616
G1 X118.191 Y112.606 E11.91398
G1 X113.733 Y115.776 E12.18689
G1 X109.469 Y119.185 E12.45925
G1 X105.385 Y122.846 E12.73288
G1 X100.2 Y128.045 E13.0992
G1 X99.844 Y128.352 E13.12266
G1 X99.016 Y128.968 E13.17414
G1 X98.627 Y129.216 E13.19716
G1 X97.648 Y129.745 E13.25268
G1 X97.163 Y129.958 E13.2791
G1 X95.792 Y130.427 E13.35139
G1 X95.162 Y130.573 E13.38366
G1 X93.584 Y130.775 E13.46303
G1 X93.034 Y130.798 E13.49049
G1 X91.987 Y130.751 E13.54278
G1 X91.533 Y130.698 E13.56558
G1 X90.45 Y130.492 E13.62058
G1 X90.024 Y130.38 E13.64256
G1 X89.059 Y130.054 E13.69338
G1 X88.656 Y129.886 E13.71516
G1 X87.743 Y129.431 E13.76605
G1 X87.391 Y129.227 E13.78635
G1 X86.585 Y128.688 E13.83472
G1 X86.234 Y128.416 E13.85688
G1 X85.413 Y127.684 E13.91175
G1 X85.094 Y127.356 E13.93458
G1 X84.406 Y126.538 E13.98791
G1 X84.08 Y126.072 E14.01628
G1 X83.267 Y124.657 E14.0977
G1 X83.125 Y124.379 E14.11327
G1 X80.835 Y119.301 E14.39118
G1 X78.312 Y114.458 E14.66362
G1 X75.499 Y109.731 E14.93805
G1 X72.933 Y105.874 E15.16917
G1 X72.783 Y105.624 E15.18372
G1 X72.256 Y104.65 E15.23897
G1 X72.042 Y104.163 E15.26551
G1 X71.573 Y102.792 E15.3378
G1 X71.427 Y102.163 E15.37001
G1 X71.225 Y100.586 E15.44933
G1 X71.202 Y100.036 E15.4768
G1 X71.249 Y98.988 E15.52913
G1 X71.302 Y98.533 E15.55199
G1 X71.508 Y97.45 E15.60699
G1 X71.62 Y97.024 E15.62896
G1 X71.946 Y96.059 E15.67978
G1 X72.114 Y95.656 E15.70156
G1 X72.568 Y94.745 E15.75234
G1 X72.771 Y94.395 E15.77253
G1 X73.31 Y93.588 E15.82095
G1 X73.583 Y93.235 E15.84321
G1 X74.315 Y92.414 E15.89808
G1 X74.643 Y92.095 E15.92091
G1 X75.462 Y91.406 E15.97431
G1 F1500 E9.47431
G0 F3600 X76.976 Y93.418
G0 X77.752 Y94.44
G0 X78.002 Y94.351
G0 X77.945 Y94.27
;TYPE:WALL-INNER
G1 F1500 E15.97431
G1 F1800 X78.355 Y94 E15.9988
G1 X78.776 Y93.764 E16.02288
G1 X79.202 Y93.562 E16.0464
G1 X79.645 Y93.387 E16.07016
G1 X80.102 Y93.242 E16.09408
G1 X80.58 Y93.125 E16.11864
G1 X81.04 Y93.046 E16.14192
G1 X81.516 Y92.998 E16.16579
G1 X82 Y92.98 E16.18995
G1 X82.484 Y92.998 E16.21412
G1 X82.96 Y93.046 E16.23798
G1 X83.42 Y93.125 E16.26127
G1 X83.898 Y93.242 E16.28582
G1 X84.355 Y93.387 E16.30974
G1 X84.798 Y93.562 E16.3335
G1 X85.224 Y93.764 E16.35703
G1 X85.645 Y94 E16.3811
G1 X86.055 Y94.27 E16.4056
G1 X86.431 Y94.554 E16.4291
G1 X86.791 Y94.869 E16.45297
G1 X87.131 Y95.209 E16.47696
G1 X87.449 Y95.573 E16.50107
G1 X87.73 Y95.945 E16.52433
G1 X88 Y96.355 E16.54882
G1 X88.236 Y96.776 E16.5729
G1 X88.436 Y97.197 E16.59616
G1 X88.613 Y97.645 E16.62019
G1 X88.762 Y98.116 E16.64483
G1 X88.872 Y98.561 E16.6677
G1 X88.953 Y99.033 E16.6916
G1 X89.002 Y99.513 E16.71567
G1 X89.02 Y99.993 E16.73963
G1 X89.002 Y100.484 E16.76414
G1 X88.954 Y100.96 E16.78801
G1 X88.876 Y101.415 E16.81104
G1 X88.757 Y101.901 E16.83601
G1 X88.618 Y102.343 E16.85912
G1 X88.438 Y102.798 E16.88353
G1 X88.236 Y103.224 E16.90706
G1 X88 Y103.645 E16.93114
G1 X87.732 Y104.052 E16.95545
G1 X87.449 Y104.427 E16.97889
G1 X87.131 Y104.791 E17.003
G1 X86.791 Y105.131 E17.02699
G1 X86.431 Y105.446 E17.05085
G1 X86.055 Y105.73 E17.07436
G1 X85.648 Y105.998 E17.09867
G1 X85.226 Y106.235 E17.12282
G1 X84.798 Y106.438 E17.14645
G1 X84.355 Y106.613 E17.17022
G1 X83.899 Y106.758 E17.19409
G1 X83.42 Y106.875 E17.21869
G1 X82.96 Y106.954 E17.24198
G1 X82.484 Y107.002 E17.26584
G1 X82 Y107.02 E17.29001
G1 X81.516 Y107.002 E17.31417
G1 X81.04 Y106.954 E17.33804
G1 X80.58 Y106.875 E17.36132
G1 X80.101 Y106.758 E17.38592
G1 X79.645 Y106.613 E17.4098
G1 X79.202 Y106.438 E17.43356
G1 X78.774 Y106.235 E17.45719
G1 X78.352 Y105.998 E17.48134
G1 X77.945 Y105.73 E17.50565
G1 X77.569 Y105.446 E17.52916
G1 X77.209 Y105.131 E17.55303
G1 X76.869 Y104.791 E17.57701
G1 X76.551 Y104.427 E17.60113
G1 X76.268 Y104.052 E17.62457
G1 X76 Y103.645 E17.64888
G1 X75.764 Y103.224 E17.67296
G1 X75.562 Y102.798 E17.69648
G1 X75.382 Y102.343 E17.72089
G1 X75.243 Y101.901 E17.74401
G1 X75.124 Y101.415 E17.76897
G1 X75.046 Y100.96 E17.792
G1 X74.998 Y100.484 E17.81587
G1 X74.98 Y100.007 E17.83968
G1 X74.998 Y99.512 E17.8644
G1 X75.047 Y99.033 E17.88842
G1 X75.128 Y98.561 E17.91231
G1 X75.238 Y98.116 E17.93518
G1 X75.387 Y97.645 E17.95983
G1 X75.564 Y97.197 E17.98386
G1 X75.764 Y96.776 E18.00711
G1 X76 Y96.355 E18.03119
G1 X76.27 Y95.945 E18.05568
G1 X76.551 Y95.573 E18.07894
G1 X76.869 Y95.209 E18.10306
G1 X77.209 Y94.869 E18.12704
G1 X77.569 Y94.554 E18.15091
G1 X77.945 Y94.27 E18.17442
G0 F3600 X77.716 Y93.942
;TYPE:WALL-OUTER
G1 F1800 X78.151 Y93.656 E18.20039
G1 X78.58 Y93.415 E18.22494
G1 X79.05 Y93.192 E18.25089
G1 X79.508 Y93.011 E18.27546
G1 X80.004 Y92.854 E18.30142
G1 X80.49 Y92.735 E18.32638
G1 X80.988 Y92.649 E18.35159
G1 X81.492 Y92.598 E18.37687
G1 X82 Y92.58 E18.40223
G1 X82.508 Y92.598 E18.42759
G1 X83.012 Y92.649 E18.45286
G1 X83.51 Y92.735 E18.47807
G1 X83.996 Y92.854 E18.50304
G1 X84.492 Y93.011 E18.52899
G1 X84.95 Y93.192 E18.55356
G1 X85.42 Y93.415 E18.57952
G1 X85.849 Y93.656 E18.60406
G1 X86.284 Y93.942 E18.63004
G1 X86.682 Y94.243 E18.65493
G1 X87.07 Y94.582 E18.68064
G1 X87.418 Y94.93 E18.70519
G1 X87.76 Y95.322 E18.73114
G1 X88.058 Y95.716 E18.75579
G1 X88.344 Y96.151 E18.78176
G1 X88.585 Y96.58 E18.80631
G1 X88.808 Y97.05 E18.83227
G1 X88.989 Y97.508 E18.85684
G1 X89.146 Y98.004 E18.88279
G1 X89.264 Y98.484 E18.90745
G1 X89.35 Y98.982 E18.93266
G1 X89.402 Y99.487 E18.95799
G1 X89.42 Y99.993 E18.98325
G1 X89.402 Y100.508 E19.00896
G1 X89.351 Y101.012 E19.03423
G1 X89.265 Y101.51 E19.05945
G1 X89.146 Y101.996 E19.08441
G1 X88.99 Y102.49 E19.11026
G1 X88.808 Y102.95 E19.13494
G1 X88.585 Y103.42 E19.16089
G1 X88.344 Y103.849 E19.18544
G1 X88.06 Y104.281 E19.21123
G1 X87.76 Y104.678 E19.23606
G1 X87.418 Y105.07 E19.26201
G1 X87.07 Y105.418 E19.28656
G1 X86.682 Y105.757 E19.31227
G1 X86.284 Y106.058 E19.33717
G1 X85.852 Y106.342 E19.36296
G1 X85.42 Y106.585 E19.38769
G1 X84.95 Y106.808 E19.41364
G1 X84.492 Y106.989 E19.43821
G1 X83.997 Y107.146 E19.46412
G1 X83.51 Y107.265 E19.48913
G1 X83.012 Y107.351 E19.51434
G1 X82.508 Y107.402 E19.53962
G1 X82 Y107.42 E19.56498
G1 X81.492 Y107.402 E19.59034
G1 X80.988 Y107.351 E19.61561
G1 X80.49 Y107.265 E19.64082
G1 X80.003 Y107.146 E19.66583
G1 X79.508 Y106.989 E19.69174
G1 X79.05 Y106.808 E19.71631
G1 X78.58 Y106.585 E19.74226
G1 X78.148 Y106.342 E19.76699
G1 X77.716 Y106.058 E19.79279
G1 X77.318 Y105.757 E19.81768
G1 X76.93 Y105.418 E19.84339
G1 X76.582 Y105.07 E19.86794
G1 X76.24 Y104.678 E19.89389
G1 X75.94 Y104.281 E19.91872
G1 X75.656 Y103.849 E19.94451
G1 X75.415 Y103.42 E19.96906
G1 X75.192 Y102.95 E19.99501
G1 X75.01 Y102.49 E20.01969
G1 X74.854 Y101.996 E20.04554
G1 X74.735 Y101.51 E20.0705
G1 X74.649 Y101.012 E20.09572
G1 X74.598 Y100.508 E20.12099
G1 X74.58 Y100.007 E20.146
G1 X74.598 Y99.487 E20.17196
G1 X74.65 Y98.982 E20.19729
G1 X74.736 Y98.484 E20.2225
G1 X74.854 Y98.004 E20.24716
G1 X75.011 Y97.508 E20.27312
G1 X75.192 Y97.05 E20.29768
G1 X75.415 Y96.58 E20.32364
G1 X75.656 Y96.151 E20.34819
G1 X75.942 Y95.716 E20.37416
G1 X76.24 Y95.322 E20.39881
G1 X76.582 Y94.93 E20.42476
G1 X76.93 Y94.582 E20.44931
G1 X77.318 Y94.243 E20.47502
G1 X77.716 Y93.942 E20.49991
G0 F3600 X77.883 Y93.832
G0 X78.367 Y94.207
;TYPE:SKIN
G1 F1800 X87.792 Y103.632 E21.1649
G1 X87.862 Y103.702
G0 F3600 X87.566 Y103.971
G1 F1800 X78.028 Y94.433 E21.83786
G1 X77.958 Y94.363
G0 F3600 X77.706 Y94.676
G1 F1800 X87.324 Y104.294 E22.51646
G1 X87.394 Y104.364
G0 F3600 X87.061 Y104.597
G1 F1800 X77.402 Y94.938 E23.19795
G1 X77.332 Y94.868
G0 F3600 X77.114 Y95.216
G1 F1800 X86.783 Y104.885 E23.88015
G1 X86.853 Y104.955
G0 F3600 X86.487 Y105.155
G1 F1800 X76.843 Y95.511 E24.56059
G1 X76.773 Y95.441
G0 F3600 X76.588 Y95.821
G1 F1800 X86.177 Y105.41 E25.23714
G1 X86.247 Y105.48
G0 F3600 X85.849 Y105.648
G1 F1800 X76.35 Y96.149 E25.90735
G1 X76.28 Y96.079
G0 F3600 X76.128 Y96.493
G1 F1800 X85.505 Y105.87 E26.56895
G1 X85.575 Y105.94
G0 F3600 X85.142 Y106.073
G1 F1800 X75.924 Y96.855 E27.21933
G1 X75.854 Y96.785
G0 F3600 X75.743 Y97.239
G1 F1800 X84.758 Y106.254 E27.85538
G1 X84.828 Y106.324
G0 F3600 X84.355 Y106.417
G1 F1800 X75.58 Y97.642 E28.47451
G1 X75.51 Y97.572
G0 F3600 X75.441 Y98.069
G1 F1800 X83.93 Y106.557 E29.07342
G1 X84 Y106.627
G0 F3600 X83.481 Y106.674
G1 F1800 X75.323 Y98.516 E29.64901
G1 X75.253 Y98.446
G0 F3600 X75.234 Y98.993
G1 F1800 X83.004 Y106.763 E30.19722
G1 X83.074 Y106.833
G0 F3600 X82.493 Y106.818
G1 F1800 X75.178 Y99.503 E30.71334
G1 X75.108 Y99.433
G0 F3600 X75.161 Y100.052
G1 F1800 X81.947 Y106.837 E31.19209
G1 X82.017 Y106.907
G0 F3600 X81.346 Y106.802
G1 F1800 X75.195 Y100.651 E31.62608
G1 X75.125 Y100.581
G0 F3600 X75.287 Y101.309
G1 F1800 X80.688 Y106.71 E32.00715
G1 X80.758 Y106.78
G0 F3600 X79.924 Y106.511
G1 F1800 X75.486 Y102.073 E32.32027
G1 X75.416 Y102.003
G0 F3600 X75.866 Y103.019
G1 F1800 X78.979 Y106.132 E32.53991
G1 X79.049 Y106.202
G0 F3600 X88.001 Y103.275
G1 F1800 X78.725 Y93.998 E33.19442
G1 X78.655 Y93.928
G0 F3600 X79.101 Y93.809
G1 F1800 X88.19 Y102.898 E33.8357
G1 X88.26 Y102.968
G0 F3600 X88.36 Y102.502
G1 F1800 X79.497 Y93.639 E34.46103
G1 X79.427 Y93.569
G0 F3600 X79.914 Y93.49
G1 F1800 X88.509 Y102.086 E35.06749
G1 X88.579 Y102.156
G0 F3600 X88.635 Y101.645
G1 F1800 X80.354 Y93.364 E35.65176
G1 X80.284 Y93.294
G0 F3600 X80.82 Y93.265
G1 F1800 X88.734 Y101.179 E36.21013
G1 X88.804 Y101.249
G0 F3600 X88.801 Y100.68
G1 F1800 X81.319 Y93.198 E36.73803
G1 X81.249 Y93.128
G0 F3600 X81.851 Y93.165
G1 F1800 X88.834 Y100.148 E37.23072
G1 X88.904 Y100.218
G0 F3600 X88.824 Y99.572
G1 F1800 X82.428 Y93.176 E37.68199
G1 X82.358 Y93.106
G0 F3600 X83.063 Y93.245
G1 F1800 X88.754 Y98.936 E38.08352
G1 X88.824 Y99.006
G0 F3600 X88.602 Y98.219
G1 F1800 X83.781 Y93.398 E38.42367
G1 X83.711 Y93.328
G0 F3600 X84.642 Y93.693
G1 F1800 X88.306 Y97.357 E38.68218
G1 X88.376 Y97.427
G0 F3600 X87.621 Y96.107
G1 F1800 X85.892 Y94.378 E38.80417
G1 X85.822 Y94.308
G0 F3600 X85.69 Y94.508
G1 F1500 E32.30417
G0 F3600 X87.716 Y104.041
G0 X88.739 Y104.816
G0 X90.295 Y112.171
G0 X90.677 Y113.377
G0 X91.129 Y113.338
G0 X91.102 Y113.242
;TYPE:WALL-INNER
G1 F1500 E38.80417
G1 F1800 X91.58 Y113.125 E38.82872
G1 X92.04 Y113.046 E38.85201
G1 X92.516 Y112.998 E38.87588
G1 X93 Y112.98 E38.90004
G1 X93.484 Y112.998 E38.9242
G1 X93.96 Y113.046 E38.94807
G1 X94.42 Y113.125 E38.97136
G1 X94.898 Y113.242 E38.99591
G1 X95.355 Y113.387 E39.01983
G1 X95.798 Y113.562 E39.04359
G1 X96.224 Y113.764 E39.06711
G1 X96.645 Y114 E39.09119
G1 X97.055 Y114.27 E39.11569
G1 X97.431 Y114.554 E39.13919
G1 X97.791 Y114.869 E39.16306
G1 X98.131 Y115.209 E39.18705
G1 X98.449 Y115.573 E39.21116
G1 X98.73 Y115.945 E39.23442
G1 X99 Y116.355 E39.25891
G1 X99.236 Y116.776 E39.28299
