;Generated by Cura LulzBot Edition GCodeWriter Version: 2.6.66
;FLAVOR:RepRap
;TIME:1686
;Filament used: 0.973917m
;Layer height: 0.1
;Generated with Cura_SteamEngine 2.6.66
G21 ;metric values
G90 ;absolute positioning
M82 ;set extruder to absolute mode
M107 ;start with the fan off
G28 X0 Y0 ;move X/Y to min endstops
G28 Z0 ;move Z to min endstops
G1 Z15.0 F9000 ;move the platform down 15mm
G92 E0 ;zero the extruded length
G1 F200 E3 ;extrude 3mm of feed stock
G92 E0 ;zero the extruded length again
G1 F9000
;Put printing message on LCD screen
M117 Printing...
M221 S100
;LAYER_COUNT:105
;LAYER:0
M107
G0 F3600 X65.486 Y87.723 Z0.299
;TYPE:SKIRT
G1 F1800 X66.401 Y87.047 E0.05676
G1 X67.217 Y86.52 E0.10522
G1 X68.209 Y85.963 E0.16198
G1 X69.085 Y85.54 E0.21051
G1 X70.138 Y85.111 E0.26724
G1 X70.884 Y84.851 E0.30665
G1 X71.286 Y84.744 E0.32741
G1 X72.944 Y84.352 E0.4124
G1 X73.721 Y84.21 E0.45181
G1 X74.15 Y84.165 E0.47333
G1 X75.285 Y84.079 E0.53012
G1 X76.252 Y84.066 E0.57837
G1 X77.386 Y84.121 E0.63501
G1 X78.172 Y84.199 E0.67441
G1 X78.587 Y84.273 E0.69545
G1 X80.256 Y84.618 E0.78047
G1 X81.02 Y84.817 E0.81986
G1 X81.643 Y85.043 E0.85292
G1 X83.219 Y85.691 E0.93794
G1 X83.933 Y86.028 E0.97733
G1 X84.313 Y86.245 E0.99916
G1 X85.284 Y86.837 E1.0559
G1 X85.937 Y87.282 E1.09532
G1 X86.257 Y87.538 E1.11577
G1 X87.497 Y88.585 E1.19673
G1 X87.928 Y88.121 E1.22833
G1 X88.752 Y87.339 E1.285
G1 X89.486 Y86.723 E1.33281
G1 X90.401 Y86.047 E1.38957
G1 X91.217 Y85.52 E1.43803
G1 X92.209 Y84.963 E1.49479
G1 X93.085 Y84.54 E1.54332
G1 X94.138 Y84.111 E1.60005
G1 X94.884 Y83.851 E1.63946
G1 X95.286 Y83.744 E1.66021
G1 X96.944 Y83.352 E1.74521
G1 X97.721 Y83.21 E1.78462
G1 X98.15 Y83.165 E1.80614
G1 X99.285 Y83.079 E1.86293
G1 X100.252 Y83.066 E1.91118
G1 X101.386 Y83.121 E1.96782
G1 X102.172 Y83.199 E2.00722
G1 X102.587 Y83.273 E2.02826
G1 X104.256 Y83.618 E2.11328
G1 X105.02 Y83.817 E2.15267
G1 X105.643 Y84.043 E2.18573
G1 X107.219 Y84.691 E2.27075
G1 X107.933 Y85.028 E2.31014
G1 X108.313 Y85.245 E2.33197
G1 X109.284 Y85.837 E2.38871
G1 X109.937 Y86.282 E2.42813
G1 X110.257 Y86.538 E2.44858
G1 X111.558 Y87.637 E2.53354
G1 X112.135 Y88.177 E2.57297
G1 X112.414 Y88.482 E2.59359
G1 X113.16 Y89.341 E2.65035
G1 X113.647 Y89.962 E2.68972
G1 X113.887 Y90.323 E2.71135
G1 X114.79 Y91.769 E2.7964
G1 X115.174 Y92.46 E2.83584
G1 X115.349 Y92.843 E2.85685
G1 X115.794 Y93.887 E2.91347
G1 X116.067 Y94.628 E2.95287
G1 X116.182 Y95.037 E2.97407
G1 X116.599 Y96.69 E3.05912
G1 X116.753 Y97.465 E3.09854
G1 X116.803 Y97.884 E3.11959
G1 X116.907 Y99.016 E3.1763
G1 X116.936 Y99.991 E3.22497
G1 X116.898 Y101.128 E3.28173
G1 X116.831 Y101.914 E3.32108
G1 X116.764 Y102.327 E3.34196
G1 X116.445 Y104.001 E3.42697
G1 X116.258 Y104.768 E3.46636
G1 X116.042 Y105.396 E3.49949
G1 X115.419 Y106.98 E3.58441
G1 X115.093 Y107.699 E3.6238
G1 X114.889 Y108.069 E3.64488
G1 X114.314 Y109.05 E3.70161
G1 X113.881 Y109.71 E3.74099
G1 X113.618 Y110.05 E3.76243
G1 X112.537 Y111.369 E3.84752
G1 X112.006 Y111.954 E3.88693
G1 X111.706 Y112.237 E3.90751
G1 X110.859 Y112.995 E3.96421
G1 X110.088 Y113.603 E4.0132
G1 X109.152 Y114.249 E4.06994
G1 X108.48 Y114.664 E4.10934
G1 X108.117 Y114.851 E4.12972
G1 X106.583 Y115.593 E4.21473
G1 X105.856 Y115.9 E4.2541
G1 X105.21 Y116.104 E4.2879
G1 X103.564 Y116.546 E4.37293
G1 X102.792 Y116.712 E4.41232
G1 X102.371 Y116.769 E4.43352
G1 X101.24 Y116.89 E4.49027
G1 X100.273 Y116.933 E4.53856
G1 X99.138 Y116.913 E4.59519
G1 X98.184 Y116.837 E4.64294
G1 X97.058 Y116.678 E4.69967
G1 X96.096 Y116.48 E4.74867
G1 X95 Y116.181 E4.80535
G1 X94.084 Y115.869 E4.85363
G1 X93.032 Y115.436 E4.91039
G1 X92.161 Y115.012 E4.95872
G1 X91.171 Y114.452 E5.01546
G1 X90.356 Y113.922 E5.06396
G1 X89.443 Y113.243 E5.12073
G1 X88.708 Y112.622 E5.16873
G1 X88.494 Y112.417 E5.18352
G1 X88.006 Y112.954 E5.21972
G1 X87.706 Y113.237 E5.2403
G1 X86.859 Y113.995 E5.297
G1 X86.088 Y114.603 E5.34599
G1 X85.152 Y115.249 E5.40273
G1 X84.48 Y115.664 E5.44213
G1 X84.117 Y115.851 E5.4625
G1 X82.583 Y116.593 E5.54752
G1 X81.856 Y116.9 E5.58689
G1 X81.21 Y117.104 E5.62069
G1 X79.564 Y117.546 E5.70572
G1 X78.792 Y117.712 E5.74511
G1 X78.371 Y117.769 E5.76631
G1 X77.24 Y117.89 E5.82306
G1 X76.273 Y117.933 E5.87135
G1 X75.138 Y117.913 E5.92798
G1 X74.184 Y117.837 E5.97573
G1 X73.058 Y117.678 E6.03246
G1 X72.096 Y117.48 E6.08146
G1 X71 Y117.181 E6.13814
G1 X70.084 Y116.869 E6.18642
G1 X69.032 Y116.436 E6.24317
G1 X68.161 Y116.012 E6.2915
G1 X67.171 Y115.452 E6.34825
G1 X66.356 Y114.922 E6.39675
G1 X65.443 Y114.243 E6.45352
G1 X64.708 Y113.622 E6.50152
G1 X63.887 Y112.837 E6.55819
G1 X63.221 Y112.115 E6.6072
G1 X62.505 Y111.233 E6.66387
G1 X61.948 Y110.453 E6.71169
G1 X61.345 Y109.489 E6.76842
G1 X60.961 Y108.8 E6.80777
G1 X60.781 Y108.408 E6.82929
G1 X60.113 Y106.839 E6.91437
G1 X59.841 Y106.098 E6.95375
G1 X59.67 Y105.45 E6.98719
G1 X59.306 Y103.785 E7.07221
G1 X59.177 Y103.006 E7.11161
G1 X59.141 Y102.6 E7.13194
G1 X59.071 Y101.467 E7.18858
G1 X59.072 Y100.486 E7.23752
G1 X59.145 Y99.35 E7.29431
G1 X59.268 Y98.382 E7.34299
G1 X59.482 Y97.265 E7.39973
G1 X59.72 Y96.337 E7.44753
G1 X60.069 Y95.256 E7.5042
G1 X60.422 Y94.357 E7.55239
G1 X60.902 Y93.327 E7.60908
G1 X61.37 Y92.468 E7.65788
G1 X61.976 Y91.505 E7.71465
G1 X62.538 Y90.724 E7.76265
G1 X63.257 Y89.844 E7.81935
G1 X63.928 Y89.121 E7.86856
G1 X64.752 Y88.339 E7.92523
G1 X65.486 Y87.723 E7.97304
G0 F3600 X65.724 Y88.045
G1 F1800 X66.639 Y87.369 E8.0298
G1 X67.413 Y86.869 E8.07577
G1 X68.405 Y86.312 E8.13253
G1 X69.236 Y85.911 E8.17856
G1 X70.289 Y85.482 E8.23529
G1 X71.378 Y85.134 E8.29233
G1 X73.036 Y84.742 E8.37732
G1 X73.793 Y84.604 E8.41571
G1 X74.18 Y84.564 E8.43512
G1 X75.315 Y84.478 E8.49191
G1 X76.232 Y84.466 E8.53766
G1 X77.366 Y84.521 E8.59431
G1 X78.506 Y84.665 E8.65163
G1 X80.175 Y85.01 E8.73666
G1 X80.919 Y85.205 E8.77503
G1 X81.491 Y85.413 E8.8054
G1 X83.067 Y86.061 E8.89041
G1 X83.762 Y86.39 E8.92877
G1 X84.105 Y86.587 E8.94851
G1 X85.076 Y87.179 E9.00524
G1 X85.999 Y87.844 E9.062
G1 X87.3 Y88.943 E9.14697
G1 X87.518 Y89.158 E9.16224
G1 X87.567 Y89.097 E9.16615
G1 X88.203 Y88.411 E9.21282
G1 X89.027 Y87.629 E9.26949
G1 X89.724 Y87.045 E9.31486
G1 X90.639 Y86.369 E9.37161
G1 X91.413 Y85.869 E9.41759
G1 X92.405 Y85.312 E9.47434
G1 X93.236 Y84.911 E9.52038
G1 X94.289 Y84.482 E9.5771
G1 X95.378 Y84.134 E9.63414
G1 X97.036 Y83.742 E9.71914
G1 X97.793 Y83.604 E9.75753
G1 X98.18 Y83.564 E9.77694
G1 X99.315 Y83.478 E9.83373
G1 X100.232 Y83.466 E9.87948
G1 X101.366 Y83.521 E9.93612
G1 X102.506 Y83.665 E9.99345
G1 X104.175 Y84.01 E10.07848
G1 X104.919 Y84.205 E10.11685
G1 X105.491 Y84.413 E10.14721
G1 X107.067 Y85.061 E10.23223
G1 X107.762 Y85.39 E10.27059
G1 X108.105 Y85.587 E10.29032
G1 X109.076 Y86.179 E10.34706
G1 X109.999 Y86.844 E10.40382
G1 X111.3 Y87.943 E10.48878
G1 X112.112 Y88.744 E10.54569
G1 X112.858 Y89.603 E10.60245
G1 X113.332 Y90.209 E10.64083
G1 X113.548 Y90.535 E10.66034
G1 X114.451 Y91.981 E10.74539
G1 X114.981 Y92.999 E10.80265
G1 X115.426 Y94.043 E10.85927
G1 X115.794 Y95.135 E10.91676
G1 X116.211 Y96.788 E11.00182
G1 X116.405 Y97.921 E11.05916
G1 X116.509 Y99.053 E11.11588
G1 X116.536 Y99.977 E11.162
G1 X116.498 Y101.114 E11.21875
G1 X116.371 Y102.252 E11.27588
G1 X116.052 Y103.926 E11.3609
G1 X115.869 Y104.673 E11.39927
G1 X115.67 Y105.25 E11.42972
G1 X115.047 Y106.834 E11.51464
G1 X114.544 Y107.867 E11.57196
G1 X113.969 Y108.848 E11.62869
G1 X113.546 Y109.49 E11.66705
G1 X113.308 Y109.797 E11.68643
G1 X112.227 Y111.116 E11.77151
G1 X111.439 Y111.939 E11.82835
G1 X110.592 Y112.697 E11.88506
G1 X109.86 Y113.273 E11.93153
G1 X108.924 Y113.919 E11.98827
G1 X107.943 Y114.491 E12.04493
G1 X106.409 Y115.233 E12.12994
G1 X105.7 Y115.531 E12.16831
G1 X105.106 Y115.718 E12.19938
G1 X103.46 Y116.16 E12.28441
G1 X102.328 Y116.371 E12.34186
G1 X101.197 Y116.492 E12.3986
G1 X100.28 Y116.533 E12.4444
G1 X99.145 Y116.513 E12.50103
G1 X98.24 Y116.441 E12.54633
G1 X97.114 Y116.282 E12.60306
G1 X96.201 Y116.094 E12.64956
G1 X95.105 Y115.795 E12.70624
G1 X94.236 Y115.499 E12.75204
G1 X93.184 Y115.066 E12.8088
G1 X92.358 Y114.664 E12.85463
G1 X91.368 Y114.104 E12.91138
G1 X90.595 Y113.601 E12.95739
G1 X89.682 Y112.922 E13.01415
G1 X88.984 Y112.333 E13.05972
G1 X88.46 Y111.832 E13.09589
G1 X88.227 Y112.116 E13.11421
G1 X87.439 Y112.939 E13.17106
G1 X86.592 Y113.697 E13.22777
G1 X85.86 Y114.273 E13.27424
G1 X84.924 Y114.919 E13.33098
G1 X83.943 Y115.491 E13.38763
G1 X82.409 Y116.233 E13.47265
G1 X81.7 Y116.531 E13.51101
G1 X81.106 Y116.718 E13.54208
G1 X79.46 Y117.16 E13.62711
G1 X78.328 Y117.371 E13.68456
G1 X77.197 Y117.492 E13.74131
G1 X76.28 Y117.533 E13.7871
G1 X75.145 Y117.513 E13.84374
G1 X74.24 Y117.441 E13.88903
G1 X73.114 Y117.282 E13.94576
G1 X72.201 Y117.094 E13.99227
G1 X71.105 Y116.795 E14.04895
G1 X70.236 Y116.499 E14.09475
G1 X69.184 Y116.066 E14.1515
G1 X68.358 Y115.664 E14.19734
G1 X67.368 Y115.104 E14.25408
G1 X66.595 Y114.601 E14.30009
G1 X65.682 Y113.922 E14.35686
G1 X64.984 Y113.333 E14.40242
G1 X64.163 Y112.548 E14.45909
G1 X63.532 Y111.863 E14.50556
G1 X62.816 Y110.981 E14.56223
G1 X62.287 Y110.241 E14.60762
G1 X61.684 Y109.277 E14.66434
G1 X61.311 Y108.605 E14.70269
G1 X61.149 Y108.252 E14.72207
G1 X60.481 Y106.683 E14.80714
G1 X60.217 Y105.96 E14.84554
G1 X60.061 Y105.364 E14.87628
G1 X59.697 Y103.699 E14.96131
G1 X59.54 Y102.575 E15.01793
G1 X59.47 Y101.442 E15.07456
G1 X59.471 Y100.511 E15.12101
G1 X59.544 Y99.375 E15.1778
G1 X59.661 Y98.458 E15.22392
G1 X59.875 Y97.341 E15.28066
G1 X60.101 Y96.459 E15.32609
G1 X60.45 Y95.378 E15.38276
G1 X60.785 Y94.526 E15.42843
G1 X61.265 Y93.496 E15.48513
G1 X61.709 Y92.681 E15.53143
G1 X62.315 Y91.718 E15.5882
G1 X62.848 Y90.977 E15.63373
G1 X63.567 Y90.097 E15.69043
G1 X64.203 Y89.411 E15.7371
G1 X65.027 Y88.629 E15.79378
G1 X65.724 Y88.045 E15.83914
G0 F3600 X65.961 Y88.367
G1 F1800 X66.876 Y87.691 E15.8959
G1 X67.609 Y87.217 E15.93945
G1 X68.601 Y86.66 E15.99621
G1 X69.387 Y86.281 E16.03974
G1 X70.44 Y85.852 E16.09647
G1 X71.47 Y85.523 E16.15041
G1 X73.128 Y85.131 E16.23541
G1 X74.21 Y84.963 E16.29004
G1 X75.345 Y84.877 E16.34683
G1 X76.213 Y84.865 E16.39014
G1 X77.347 Y84.92 E16.44678
G1 X78.425 Y85.057 E16.50099
G1 X80.094 Y85.402 E16.58602
G1 X80.817 Y85.592 E16.62331
G1 X81.339 Y85.783 E16.65105
G1 X82.915 Y86.431 E16.73606
G1 X83.897 Y86.928 E16.79097
G1 X84.868 Y87.52 E16.84771
G1 X85.741 Y88.15 E16.90142
G1 X87.042 Y89.249 E16.98638
G1 X87.55 Y89.749 E17.02194
G1 X87.876 Y89.35 E17.04765
G1 X88.478 Y88.702 E17.09178
G1 X89.302 Y87.92 E17.14845
G1 X89.961 Y87.367 E17.19137
G1 X90.876 Y86.691 E17.24813
G1 X91.609 Y86.217 E17.29168
G1 X92.601 Y85.66 E17.34844
G1 X93.387 Y85.281 E17.39197
G1 X94.44 Y84.852 E17.4487
G1 X95.47 Y84.523 E17.50264
G1 X97.128 Y84.131 E17.58764
G1 X98.21 Y83.963 E17.64227
G1 X99.345 Y83.877 E17.69906
G1 X100.213 Y83.865 E17.74237
G1 X101.347 Y83.92 E17.79901
G1 X102.425 Y84.057 E17.85322
G1 X104.094 Y84.402 E17.93825
G1 X104.817 Y84.592 E17.97554
G1 X105.339 Y84.783 E18.00328
G1 X106.915 Y85.431 E18.08829
G1 X107.897 Y85.928 E18.1432
G1 X108.868 Y86.52 E18.19994
G1 X109.741 Y87.15 E18.25365
G1 X111.042 Y88.249 E18.33861
G1 X111.81 Y89.006 E18.39241
G1 X112.556 Y89.865 E18.44917
G1 X113.208 Y90.747 E18.50389
G1 X114.111 Y92.193 E18.58895
G1 X114.613 Y93.156 E18.64313
G1 X115.058 Y94.2 E18.69975
G1 X115.406 Y95.233 E18.75413
G1 X115.823 Y96.886 E18.83918
G1 X116.007 Y97.958 E18.89344
G1 X116.111 Y99.09 E18.95016
G1 X116.136 Y99.964 E18.99378
G1 X116.098 Y101.101 E19.05054
G1 X115.978 Y102.177 E19.10455
G1 X115.659 Y103.851 E19.18957
G1 X115.48 Y104.578 E19.22692
G1 X115.297 Y105.103 E19.25466
G1 X114.674 Y106.687 E19.33958
G1 X114.199 Y107.665 E19.39382
G1 X113.624 Y108.646 E19.45055
G1 X112.999 Y109.543 E19.5051
G1 X111.918 Y110.862 E19.59018
G1 X111.172 Y111.641 E19.64399
G1 X110.325 Y112.399 E19.7007
G1 X109.633 Y112.944 E19.74464
G1 X108.697 Y113.59 E19.80138
G1 X107.769 Y114.131 E19.85497
G1 X106.235 Y114.873 E19.93999
G1 X105.545 Y115.162 E19.97731
G1 X105.002 Y115.331 E20.00568
G1 X103.356 Y115.773 E20.09071
G1 X102.286 Y115.973 E20.14502
G1 X101.155 Y116.094 E20.20177
G1 X100.287 Y116.133 E20.24511
G1 X99.152 Y116.113 E20.30175
G1 X98.296 Y116.045 E20.34459
G1 X97.17 Y115.886 E20.40132
G1 X96.307 Y115.708 E20.44528
G1 X95.211 Y115.409 E20.50196
G1 X94.389 Y115.129 E20.54529
G1 X93.337 Y114.696 E20.60204
G1 X92.555 Y114.316 E20.64542
G1 X91.565 Y113.756 E20.70216
G1 X90.834 Y113.28 E20.74568
G1 X89.921 Y112.601 E20.80245
G1 X89.26 Y112.043 E20.84561
G1 X88.439 Y111.258 E20.90228
G1 X88.425 Y111.243 E20.9033
G1 X87.918 Y111.862 E20.94322
G1 X87.172 Y112.641 E20.99703
G1 X86.325 Y113.399 E21.05374
G1 X85.633 Y113.944 E21.09768
G1 X84.697 Y114.59 E21.15442
G1 X83.769 Y115.131 E21.20801
G1 X82.235 Y115.873 E21.29303
G1 X81.545 Y116.162 E21.33035
G1 X81.002 Y116.331 E21.35872
G1 X79.356 Y116.773 E21.44375
G1 X78.286 Y116.973 E21.49806
G1 X77.155 Y117.094 E21.55481
G1 X76.287 Y117.133 E21.59815
G1 X75.152 Y117.113 E21.65479
G1 X74.296 Y117.045 E21.69763
G1 X73.17 Y116.886 E21.75436
G1 X72.307 Y116.708 E21.79832
G1 X71.211 Y116.409 E21.855
G1 X70.389 Y116.129 E21.89833
G1 X69.337 Y115.696 E21.95508
G1 X68.555 Y115.316 E21.99846
G1 X67.565 Y114.756 E22.0552
G1 X66.834 Y114.28 E22.09872
G1 X65.921 Y113.601 E22.15549
G1 X65.26 Y113.043 E22.19865
G1 X64.439 Y112.258 E22.25532
G1 X63.842 Y111.611 E22.29924
G1 X63.126 Y110.729 E22.35591
G1 X62.626 Y110.029 E22.39883
G1 X62.023 Y109.065 E22.45556
G1 X61.517 Y108.095 E22.51014
G1 X60.849 Y106.526 E22.59522
G1 X60.594 Y105.823 E22.63253
G1 X60.452 Y105.279 E22.66058
G1 X60.088 Y103.614 E22.74561
G1 X59.939 Y102.551 E22.79916
G1 X59.869 Y101.418 E22.85579
G1 X59.87 Y100.537 E22.89974
G1 X59.943 Y99.401 E22.95654
G1 X60.054 Y98.533 E23.00019
G1 X60.268 Y97.416 E23.05693
G1 X60.482 Y96.582 E23.09989
G1 X60.831 Y95.501 E23.15656
G1 X61.147 Y94.695 E23.19976
G1 X61.627 Y93.665 E23.25645
G1 X62.047 Y92.894 E23.30025
G1 X62.653 Y91.931 E23.35702
G1 X63.157 Y91.23 E23.40009
G1 X63.876 Y90.35 E23.45678
G1 X64.478 Y89.702 E23.50091
G1 X65.302 Y88.92 E23.55759
G1 X65.961 Y88.367 E23.60051
G0 F3600 X66.199 Y88.689
G1 F1800 X67.114 Y88.013 E23.65726
G1 X67.805 Y87.566 E23.69832
G1 X68.797 Y87.009 E23.75508
G1 X69.538 Y86.652 E23.79612
G1 X70.591 Y86.223 E23.85284
G1 X71.562 Y85.912 E23.90371
G1 X73.22 Y85.52 E23.98871
G1 X74.24 Y85.362 E24.0402
G1 X75.375 Y85.276 E24.09699
G1 X76.194 Y85.265 E24.13785
G1 X77.328 Y85.32 E24.1945
G1 X78.344 Y85.449 E24.24559
G1 X80.013 Y85.794 E24.33062
G1 X80.715 Y85.98 E24.36685
G1 X81.187 Y86.153 E24.39193
G1 X82.763 Y86.801 E24.47694
G1 X83.689 Y87.27 E24.52873
G1 X84.66 Y87.862 E24.58547
G1 X85.483 Y88.455 E24.63608
G1 X86.784 Y89.554 E24.72104
G1 X87.508 Y90.268 E24.77177
G1 X87.577 Y90.348 E24.77704
G1 X88.186 Y89.603 E24.82505
G1 X88.754 Y88.992 E24.86667
G1 X89.578 Y88.21 E24.92334
G1 X90.199 Y87.689 E24.96379
G1 X91.114 Y87.013 E25.02054
G1 X91.805 Y86.566 E25.0616
G1 X92.797 Y86.009 E25.11836
G1 X93.538 Y85.652 E25.1594
G1 X94.591 Y85.223 E25.21612
G1 X95.562 Y84.912 E25.26699
G1 X97.22 Y84.52 E25.35199
G1 X98.24 Y84.362 E25.40348
G1 X99.375 Y84.276 E25.46027
G1 X100.194 Y84.265 E25.50113
G1 X101.328 Y84.32 E25.55778
G1 X102.344 Y84.449 E25.60887
G1 X104.013 Y84.794 E25.6939
G1 X104.715 Y84.98 E25.73013
G1 X105.187 Y85.153 E25.75521
G1 X106.763 Y85.801 E25.84022
G1 X107.689 Y86.27 E25.89201
G1 X108.66 Y86.862 E25.94875
G1 X109.483 Y87.455 E25.99935
G1 X110.784 Y88.554 E26.08432
G1 X111.508 Y89.268 E26.13505
G1 X112.254 Y90.127 E26.19181
G1 X112.869 Y90.959 E26.24343
G1 X113.772 Y92.405 E26.32848
G1 X114.245 Y93.313 E26.37956
G1 X114.69 Y94.357 E26.43618
G1 X115.019 Y95.331 E26.48747
G1 X115.436 Y96.984 E26.57252
G1 X115.608 Y97.994 E26.62364
G1 X115.712 Y99.126 E26.68035
G1 X115.736 Y99.95 E26.72148
G1 X115.698 Y101.087 E26.77823
G1 X115.585 Y102.102 E26.82919
G1 X115.266 Y103.776 E26.9142
G1 X115.091 Y104.481 E26.95044
G1 X114.925 Y104.957 E26.9756
G1 X114.302 Y106.541 E27.06051
G1 X113.854 Y107.462 E27.11161
